svg/business/stock_fill.svg

<?xml version="1.0" encoding="UTF-8"?>
<svg width="24px" height="24px" viewBox="0 0 24 24" version="1.1" xmlns="http://www.w3.org/2000/svg" xmlns:xlink="http://www.w3.org/1999/xlink">
    <title>stock_fill</title>
    <g id="页面-1" stroke="none" stroke-width="1" fill="none" fill-rule="evenodd">
        <g id="Business" transform="translate(-1104.000000, -48.000000)" fill-rule="nonzero">
            <g id="stock_fill" transform="translate(1104.000000, 48.000000)">
                <path d="M24,0 L24,24 L0,24 L0,0 L24,0 Z M12.5934901,23.257841 L12.5819402,23.2595131 L12.5108777,23.2950439 L12.4918791,23.2987469 L12.4918791,23.2987469 L12.4767152,23.2950439 L12.4056548,23.2595131 C12.3958229,23.2563662 12.3870493,23.2590235 12.3821421,23.2649074 L12.3780323,23.275831 L12.360941,23.7031097 L12.3658947,23.7234994 L12.3769048,23.7357139 L12.4804777,23.8096931 L12.4953491,23.8136134 L12.4953491,23.8136134 L12.5071152,23.8096931 L12.6106902,23.7357139 L12.6232938,23.7196733 L12.6232938,23.7196733 L12.6266527,23.7031097 L12.609561,23.275831 C12.6075724,23.2657013 12.6010112,23.2592993 12.5934901,23.257841 L12.5934901,23.257841 Z M12.8583906,23.1452862 L12.8445485,23.1473072 L12.6598443,23.2396597 L12.6498822,23.2499052 L12.6498822,23.2499052 L12.6471943,23.2611114 L12.6650943,23.6906389 L12.6699349,23.7034178 L12.6699349,23.7034178 L12.678386,23.7104931 L12.8793402,23.8032389 C12.8914285,23.8068999 12.9022333,23.8029875 12.9078286,23.7952264 L12.9118235,23.7811639 L12.8776777,23.1665331 C12.8752882,23.1545897 12.8674102,23.1470016 12.8583906,23.1452862 L12.8583906,23.1452862 Z M12.1430473,23.1473072 C12.1332178,23.1423925 12.1221763,23.1452606 12.1156365,23.1525954 L12.1099173,23.1665331 L12.0757714,23.7811639 C12.0751323,23.7926639 12.0828099,23.8018602 12.0926481,23.8045676 L12.108256,23.8032389 L12.3092106,23.7104931 L12.3186497,23.7024347 L12.3186497,23.7024347 L12.3225043,23.6906389 L12.340401,23.2611114 L12.337245,23.2485176 L12.337245,23.2485176 L12.3277531,23.2396597 L12.1430473,23.1473072 Z" id="MingCute" fill-rule="nonzero"></path>
                <path d="M8,2 C8.55228,2 9,2.44772 9,3 L9,5 C10.6569,5 12,6.34315 12,8 L12,14 C12,15.6569 10.6569,17 9,17 L9,21 C9,21.5523 8.55228,22 8,22 C7.44772,22 7,21.5523 7,21 L7,17 C5.34315,17 4,15.6569 4,14 L4,8 C4,6.34315 5.34315,5 7,5 L7,3 C7,2.44772 7.44772,2 8,2 Z M17,2 C17.51285,2 17.9355092,2.38604429 17.9932725,2.88337975 L18,3 L18,7 C19.597725,7 20.903664,8.24892392 20.9949075,9.82372764 L21,10 L21,16 C21,17.597725 19.7511226,18.903664 18.1762773,18.9949075 L18,19 L18,21 C18,21.5523 17.5523,22 17,22 C16.48715,22 16.0644908,21.613973 16.0067275,21.1166239 L16,21 L16,19 C14.402275,19 13.096336,17.7511226 13.0050925,16.1762773 L13,16 L13,10 C13,8.40232321 14.2488774,7.09633941 15.8237227,7.00509271 L16,7 L16,3 C16,2.44772 16.4477,2 17,2 Z" id="形状" fill="#09244B"></path>
            </g>
        </g>
    </g>
</svg>

<svg xmlns="http://www.w3.org/2000/svg" width="24" height="24"><g fill="none" fill-rule="nonzero"><path d="M24 0v24H0V0zM12.593 23.258l-.011.002-.071.035-.02.004-.014-.004-.071-.035c-.01-.004-.019-.001-.024.005l-.004.01-.017.428.005.02.01.013.104.074.015.004.012-.004.104-.074.012-.016.004-.017-.017-.427c-.002-.01-.009-.017-.017-.018m.265-.113-.013.002-.185.093-.01.01-.003.011.018.43.005.012.008.007.201.093c.012.004.023 0 .029-.008l.004-.014-.034-.614c-.003-.012-.01-.02-.02-.022m-.715.002a.023.023 0 0 0-.027.006l-.006.014-.034.614c0 .012.007.02.017.024l.015-.002.201-.093.01-.008.004-.011.017-.43-.003-.012-.01-.01z"/><path fill="#09244B" d="M8 2a1 1 0 0 1 1 1v2a3 3 0 0 1 3 3v6a3 3 0 0 1-3 3v4a1 1 0 1 1-2 0v-4a3 3 0 0 1-3-3V8a3 3 0 0 1 3-3V3a1 1 0 0 1 1-1m9 0a1 1 0 0 1 .993.883L18 3v4a3 3 0 0 1 2.995 2.824L21 10v6a3 3 0 0 1-2.824 2.995L18 19v2a1 1 0 0 1-1.993.117L16 21v-2a3 3 0 0 1-2.995-2.824L13 16v-6a3 3 0 0 1 2.824-2.995L16 7V3a1 1 0 0 1 1-1"/></g></svg>
